icons/settings/OpenAll.svg

<path d="M6 7h4v1H7.707l6.718 6.717-.708.708L7 8.707V11H6V7Zm14 14H8v-9l1 1v7h10V10h-7l-1-1h9v12ZM3 16V4h12v3h-1V5H4v10h2v1H3Z" fill="#090909"/>

<path
	d="M6 7H10V8H7.707L14.425 14.717L13.717 15.425L7 8.707V11H6V7ZM20 21H8V12L9 13V20H19V10H12L11 9H20V21ZM3 16V4H15V7H14V5H4V15H6V16H3Z"
	fill="#090909" />
